fs/picture_in_picture_enter_16_regular.svg

<svg viewBox="0 0 16 16" fill="none" xmlns="http://www.w3.org/2000/svg" height="1em" width="1em">
  <path d="M3.5 2C2.11929 2 1 3.11929 1 4.5V9.5C1 10.8807 2.11929 12 3.5 12H7V11H3.5C2.67157 11 2 10.3284 2 9.5V4.5C2 3.67157 2.67157 3 3.5 3H11.5C12.3284 3 13 3.67157 13 4.5V8H14V4.5C14 3.11929 12.8807 2 11.5 2H3.5ZM4.35355 4.64645C4.15829 4.45118 3.84171 4.45118 3.64645 4.64645C3.45118 4.84171 3.45118 5.15829 3.64645 5.35355L5.29289 7H4.5C4.22386 7 4 7.22386 4 7.5C4 7.77614 4.22386 8 4.5 8H6.5C6.56779 8 6.63244 7.98651 6.69139 7.96206C6.74949 7.93802 6.80398 7.90256 6.85143 7.85567L6.85567 7.85143C6.90256 7.80398 6.93802 7.74949 6.96206 7.69139C6.98651 7.63244 7 7.56779 7 7.5V5.5C7 5.22386 6.77614 5 6.5 5C6.22386 5 6 5.22386 6 5.5V6.29289L4.35355 4.64645ZM9 9C8.44772 9 8 9.44772 8 10V13C8 13.5523 8.44772 14 9 14H14C14.5523 14 15 13.5523 15 13V10C15 9.44772 14.5523 9 14 9H9Z" fill="#212121"/>
</svg>

<svg viewBox="0 0 16 16" fill="none" xmlns="http://www.w3.org/2000/svg" height="1em" width="1em">
  <path d="M3.5 2A2.5 2.5 0 0 0 1 4.5v5A2.5 2.5 0 0 0 3.5 12H7v-1H3.5A1.5 1.5 0 0 1 2 9.5v-5A1.5 1.5 0 0 1 3.5 3h8A1.5 1.5 0 0 1 13 4.5V8h1V4.5A2.5 2.5 0 0 0 11.5 2h-8Zm.854 2.646a.5.5 0 1 0-.708.708L5.293 7H4.5a.5.5 0 0 0 0 1h2a.498.498 0 0 0 .351-.144l.005-.005A.498.498 0 0 0 7 7.5v-2a.5.5 0 0 0-1 0v.793L4.354 4.646ZM9 9a1 1 0 0 0-1 1v3a1 1 0 0 0 1 1h5a1 1 0 0 0 1-1v-3a1 1 0 0 0-1-1H9Z" fill="#212121"/>
</svg>
